**kern	**kern	**dynam
*part1	*part1	*part1
*staff2	*staff1	*
*I"Piano	*	*
*clefF4	*clefG2	*
*k[]	*k[]	*
=1	=1	=1
4EE 4E	8r	.
.	8c#XL 8gn	.
8r	8AJ	.
4EE 4E	8r	.
.	8c#L 8g	.
8r	8AJ	.
=	=	=
4DD 4D	8r	.
.	8dL 8f	.
8r	8AJ	.
4DD 4D	8r	.
.	8dL 8f	.
8r	8AJ	.
=	=	=
4CC 4C	8r	.
.	8dL 8f	.
8r	8A-XJ	.
4CC 4C	8r	.
.	8dL 8f	.
8r	8A-J	.
=	=	=
4BBB 4BB	8r	.
.	8dL 8f	.
8r	8GJ	.
4BBB 4BB	8r	.
.	8dL 8f	.
8r	8GJ	.
=	=	=
4BBB 4BB	8r	.
.	8dL 8f	.
8r	8GJ	.
4BBB 4BB	8r	.
.	8dL 8f	.
8r	8GJ	.
=	=	=
4CC 4C	8r	ppp
.	8cL 8e-X	.
8r	8GJ	.
4AAA-X 4AA-X	8r	.
.	8cL 8e-	.
8r	8A-XJ	.
=	=	=
4DD-X 4D-X	8r	.
*	*clefF4	*
.	8A-XL 8B-X 8f	.
8r	8FJ	.
4EE-X	8r	.
.	8GL 8d-X 8e-X	.
8r	8E-XJ	.
=	=	=
*-	*-	*-
!!!system-decoration: {(s1,s2)}
